!! Georg Philipp Telemann (1681-1767)
!! Fantasy No. 5 from "Clavier Fantasies" from "Kleine Fantasien"
!! published by Edition Schott, edited by Erich Doflein, pp.10-11
!! Vivace
**kern	**kern
*M4/4	*M4/4
*k[b-]	*k[b-]
*F:	*F:
=1	=1
8F	8cc
8FF	8cc
8F	8cc
8E	16dd
.	16ee
8D	8ff
8C	8ff
8BB-	8ff
8AA	16gg
.	16aa
=2	=2
8GG	8bb-
8G	8bb-
8C	8bb-
8E	16aa
.	16gg
8F	16aa
.	16gg
8FF	8ff
8AA	4r
8C	.
=3	=3
8F	8c
8FF	8c
8F	8c
8E	16d
.	16e
8D	8f
8C	8f
8BB-	8f
8AA	16g
.	16a
=4	=4
8GG	8b-
8G	8b-
8E	8b-
8C	16a
.	16g
8F	16a
.	16g
8A	8f
8c	8r
8f	32aa
.	32gg
.	16f
=5	=5
8e	8gg
8E	8ccc
8e	8r
8d	32ff
.	32ee
.	16dd
8c	8ee
8C	8aa
8c	8r
8B-	32dd
.	32cc
.	16b-
=6	=6
8A	8cc
8AA	8ff
8A	8r
8G	32b-
.	32a
.	16g
8F	16a
.	16ff
8FF	16ee
.	16ff
8G	16b-
.	16ff
8GG	16ee
.	16ff
=7	=7
8A	16cc
.	16ff
8AA	16ee
.	16ff
8B-	16dd
.	16ff
8BB-	16ee
.	16ff
8A	16cc
.	16ff
8AA	16ee
.	16ff
8G	16b-
.	16ff
8GG	16ee
.	16ff
=8	=8
8F	8a
8G	4ee-
8A	.
8F	16dd
.	16cc
8B-	8dd
8G	4bb-
8En	.
8C	16aa
.	16gg
=9	=9
8F	8aa
8B-	16gg
.	16ff
8c	8cc
8C	8ee
8r	8ff
8FF	8f
8AA	8r
8C	8g
=10	=10
8F	16a
.	16c
8G	16b-
.	16c
8F	16a
.	16c
8E	16g
.	16c
8F	16a
.	16c
8FF	16cc
.	16c
8r	16a
.	16c
8E	16g
.	16c
=11	=11
8F	16a
.	16c
8G	16b-
.	16c
8F	16a
.	16c
8E	16g
.	16c
8F	16a
.	16e
16A	8f
16E	.
8F	8r
8F#	8a
=12	=12
8G	16b-
.	16d
8A	16cc
.	16d
8G	16b-
.	16d
8F#	16a
.	16d
8G	16b-
.	16d
8GG	16dd
.	16d
8r	16b-
.	16d
8F#	16a
.	16d
=13	=13
8G	16b-
.	16d
8A	16cc
.	16d
8G	16b-
.	16d
8F#	16a
.	16d
8G	16b-
.	16f#
16B-	8g
16F#	.
8G	8r
8Bn	8dd
=14	=14
16c	8ee-
16e-	.
16c	8gg
16e-	.
16A	8cc
16c	.
16A	8ee-
16c	.
16F	8a
16f	.
16c	8ff
16A	.
16F	16r
16c	16ee-
16B-	16dd
16A	16cc
=15	=15
16B-	8dd
16d	.
16B-	8ff
16d	.
16G	8b-
16B-	.
16G	8dd
16B-	.
16E-	8g
16e-	.
16B-	8ee-
16G	.
16E-	16r
16B-	16dd
16A	16cc
16G	16bn
=16	=16
16A	8cc
16c	.
16A	8ee-
16c	.
16F#	8a
16A	.
16F#	8cc
16A	.
16D	8f#
16d	.
16A	8dd
16F#	.
16D	16r
16A	16cc
16G	16b-
16F#	16a
=17	=17
8G	16b-
.	16d
8B-	16g
.	16d
8G	16b-
.	16d
8B-	16g
.	16d
8F#	16a
.	16d
8A	16f#
.	16d
8F#	16a
.	16d
8A	16f#
.	16d
=18	=18
*^	*
8GG	[2G	16b-
.	.	16g
8AA	.	16cc
.	.	16a
8BB-	.	16dd
.	.	16b-
8C	.	16ee-
.	.	16cc
4BB-	4G]	16dd
.	.	16gg
.	.	16ff#
.	.	16gg
!! The quarter-rest is invisible.
4r	8r	8g
.	8F#	8a
=19	=19	=19
8GG	[2G	16b-
.	.	16g
8AA	.	16cc
.	.	16a
8BB-	.	16dd
.	.	16b-
8C	.	16ee-
.	.	16cc
4BB-	4G]	16dd
.	.	16gg
.	.	16ff#
.	.	16gg
*v	*v	*
8r	8g
8F#	8dd
=20	=20
8G	16cc
.	16b-
8C	16a
.	16g
8D	8d
8C	8f#
8BB-	8g
8GG	4dd
8Fn	.
16E	16cc
16D	16bn
=21	=21
8E	8cc
8C	4ee
8G	.
16F	16dd
16E	16cc#
8F	8dd
8D	16ff
.	16ee
8r	16dd
.	16ccn
8F	16bn
.	16a
=22	=22
8E	8g
8D	8g
8C	8g
8BBn	16a
.	16bn
8A	8cc
8G	8cc
8F	8cc
8E	16dd
.	16ee
=23	=23
8d	8ff
8c	8ff
8Bn	8ff
8G	16ee
.	16dd
8c	16ee
.	16dd
8C	8cc
8E	4r
8C	.
=24	=24
8F	8a
8FF	8a
8F	8a
8E	16bn
.	16cc#
8D	8dd
8F	8dd
8B-	8dd
8A	16ee
.	16ff
=25	=25
8G	8gg
8E	8gg
8A	8gg
8AA	16ff
.	16ee
8D	16ff
.	16ee
8F	8dd
8BB-	8r
8B-	32dd
.	32cc
.	16b-
=26	=26
8A	8cc
8AA	8ff
8A	8r
8G	32b-
.	32a
.	16g
8F	8a
8FF	8ff
8F	8r
8BB-	32g
.	32f
.	16e
=27	=27
8AA	8f
8GG	32b-
.	32a
.	16g
8FF	8a
8BB-	32dd
.	32cc
.	16b-
8AA	8cc
8D	32ff
.	32ee
.	16dd
8C	8ee
8FF	32aa
.	32gg
.	16ff
=28	=28
8C	8gg
8D	8cc
8E	8r
8C	8gg
8F	16aa-
.	16cc
8G	16bb-
.	16cc
8F	16aa-
.	16cc
8E	16gg
.	16cc
=29	=29
8F	16aa-
.	16cc
8FF	16ccc
.	16cc
8r	16aa-
.	16cc
8E	16gg
.	16cc
8F	16aa-
.	16cc
8G	16bb-
.	16cc
8F	16aa-
.	16cc
8E	16gg
.	16cc
=30	=30
8F	16aa-
.	16ee
16A-	8ff
16E	.
8F	8r
8FF	8dd-
8r	8bn
16E-	8cc
16D	.
8E-	8r
8En	8b-
=31	=31
8F	8a
8D	4b-
8G	.
8C	16a
.	16g
8F	16a
.	16ff
8FF	16ee
.	16ff
8G	16b-
.	16ff
8GG	16ee
.	16ff
=32	=32
8A	16cc
.	16ff
8AA	16ee
.	16ff
8B-	16dd
.	16ff
8BB-	16ee
.	16ff
8A	16cc
.	16ff
8AA	16ee
.	16ff
8G	16b-
.	16ff
8GG	16ee
.	16ff
=33	=33
8F	8a
8G	4ee-
8A	.
8F	16dd
.	16cc
8B-	8dd
8G	4bb-
8c	.
8E	16aa
.	16gg
=34	=34
8F	8aa
8B-	16gg
.	16ff
8c	8cc
8C	8ee
8F	8ff
8G	8f
8A	8r
8F	8cc
=35	=35
16B-	8dd
16d	.
16B-	8f
16d	.
16G	8b-
16B-	.
16G	8dd
16B-	.
16E	16r
16d	16f
16c	16e
16Bn	16d
16c	16e
16B-	16g
16A	16f
16G	16e
=36	=36
16A	8cc
16c	.
16A	8e
16c	.
16F	8a
16A	.
16F	8cc
16A	.
16D	16r
16c	16e-
16B-	16d
16A	16c
16B-	16d
16A	16f
16G	16e-
16F#	16d
=37	=37
16G	8b-
16B-	.
16G	8d
16B-	.
16E	8g
16G	.
16E	8b-
16G	.
8C	16en
.	16c
8E	16g
.	16c
8C	16e
.	16c
8E	16g
.	16c
=38	=38
8C	16f
.	16c
8F	16a
.	16c
8C	16f
.	16c
8F	16a
.	16c
8C	16g
.	16c
8G	16b-
.	16c
8C	16g
.	16c
8G	16b-
.	16c
=39	=39
8C	16a
.	16c
8A	16cc
.	16c
8C	16a
.	16c
8A	16cc
.	16c
8C	8e
8D	4b-
8E	.
8C	16a
.	16g
=40	=40
*^	*
8FF	[2F	16a
.	.	16f
8GG	.	16b-
.	.	16g
8AA	.	16cc
.	.	16a
8BB-	.	16dd
.	.	16b-
4FF	4F]	16cc
.	.	16ff
.	.	16ee
.	.	16ff
!! The quarter-rest is invisible.
4r	8r	8f
.	8E	16b-
.	.	16g
=41	=41	=41
8FF	[2F	16a
.	.	16f
8GG	.	16b-
.	.	16g
8AA	.	16cc
.	.	16a
8BB-	.	16dd
.	.	16b-
4AA	4F]	16cc
.	.	16ff
.	.	16ee
.	.	16ff
*v	*v	*
8r	8f
8E	8b-
=42	=42
8F	8a
8BB-	16g
.	16f
8C	8c
8CC	8e
4FF;	4f;
4r	4r
==	==
*-	*-
